X: 31875
T: Pay The Reckoning
R: jig
M: 6/8
K: Gmajor
E|:G2e dBG|~B3 dBA|G2e dBG|~A3 BGE|
G2e dBG|~B3 deg|age dBG|A2A BGE:|
|:gbg faf|ege def|gfg efg|aga bge|
gbg faf|ege deg|age dBG|A2A BGE:|

